!!!SOCIAL_FUNCTION:	songs of the dragging-feet dance
!!!PDT:	1922
!!!OTL: No_45_Closing_Song_of_the_Dragging-Feet_Dance.krn
!!!REG: Southwest
!!!LANG: Non-Tone
!!!LING_GROUP: Uto-Aztecan
**kern	**kern
*staff2	*staff1
=1-	=1-
*clefF4	*clefF4
*k[b-e-]	*k[b-e-]
*M3/4	*M3/4
4GG/	16d\LK
.	8d\
.	16c\Jk
4GG/	4d;\
4GG/	8.c\L
.	16B-\Jk
=2	=2
4GG/	2d\
4GG/	.
4GG/	8c\L
.	8c\J
=3	=3
4GG/	8B-\L
.	8B-\J
4GG/	4B-\
4GG/	4G\
=4||	=4||
*M2/4	*M2/4
4GG/	8B-\L
.	8B-\J
4GG/	8G\L
.	8B-\J
=5||	=5||
*M3/4	*M3/4
4GG/	2.B-\
2r	.
=6||	=6||
*M2/4	*M2/4
8r	8d\L
8GG/	8d\J
4r	8c\L
.	16d\L
.	16c\JJ
=7	=7
8r	8c\L
8GG/	8B-\J
4r	8G\L
.	16B-\L
.	16G\JJ
=8	=8
8r	12F\L
.	12D\
8GG/	.
.	12D\J
4r	4D\
=9	=9
4GG/	4D\
4r	4BB-/
=10	=10
4GG/	8D\L
.	8D\J
4GG/	8BB-/L
.	8D/J
=11||	=11||
*M3/4	*M3/4
4GG/	2.D\
4GG/	.
4GG/	.
=12||	=12||
*M2/4	*M2/4
4GG/	8B-\L
.	8B-\J
4GG/	8G\L
.	16B-\L
.	16G\JJ
=13	=13
4GG/	8G\L
.	8F\J
4GG/	8D\L
.	16F\L
.	16D\JJ
=14	=14
4GG/	8D/L
.	8BB-/J
4GG/	8BB-/L
.	8BB-/J
=15	=15
4GG/	2BB-/
4GG/	.
==	==
*-	*-
